svgs/sharp-light/square-list.svg

<svg xmlns="http://www.w3.org/2000/svg" viewBox="0 0 448 512"><!--! Font Awesome Pro 6.6.0 by @fontawesome - https://fontawesome.com License - https://fontawesome.com/license (Commercial License) Copyright 2024 Fonticons, Inc. --><path d="M32 64l0 384 384 0 0-384L32 64zM0 32l32 0 384 0 32 0 0 32 0 384 0 32-32 0L32 480 0 480l0-32L0 64 0 32zM104 160a24 24 0 1 1 48 0 24 24 0 1 1 -48 0zm88-16l16 0 128 0 16 0 0 32-16 0-128 0-16 0 0-32zm0 96l16 0 128 0 16 0 0 32-16 0-128 0-16 0 0-32zm0 96l16 0 128 0 16 0 0 32-16 0-128 0-16 0 0-32zm-64-56a24 24 0 1 1 0-48 24 24 0 1 1 0 48zm-24 72a24 24 0 1 1 48 0 24 24 0 1 1 -48 0z"/></svg>

<svg xmlns="http://www.w3.org/2000/svg" viewBox="0 0 448 512"><!--! Font Awesome Pro 6.4.2 by @fontawesome - https://fontawesome.com License - https://fontawesome.com/license (Commercial License) Copyright 2023 Fonticons, Inc. --><path d="M32 64V448H416V64H32zM0 32H32 416h32V64 448v32H416 32 0V448 64 32zM104 160a24 24 0 1 1 48 0 24 24 0 1 1 -48 0zm88-16h16H336h16v32H336 208 192V144zm0 96h16H336h16v32H336 208 192V240zm0 96h16H336h16v32H336 208 192V336zm-64-56a24 24 0 1 1 0-48 24 24 0 1 1 0 48zm-24 72a24 24 0 1 1 48 0 24 24 0 1 1 -48 0z"/></svg>
